X: 111
T: Miss Kinloch of Gilmerton's Reel
R: reel
B: William Shepherd "1st Collection" 1793 p.11 #1
F: http://imslp.org/wiki/File:PMLP73094-Shepherd_Collections_HMT.pdf
C: William Shepherd (17??-1812)
Z: 2012 John Chambers <jc:trillian.mit.edu>
M: C|
L: 1/8
K: D
G | F/E/D AF BG AG | FD AF GE EG | F/E/D AF BG AF |[1Ac eg fd d :|[2 Eg ec dD D |]
g | fd ad bd ad | fd (b/a/)g/f/ ge eg | fd ad bd ad | ~ce ag fd d ||
a | fd ad bd ad | fd b/a/g/f/ ge eg | fd cd B/c/d AF | Gb ag fd ~d |]
